X:526
M:C|
L:1/8
K:D
g|f>de>c d>FD>F|E>=CCE G2 G>g|f>de>c d>FD>F|A>FD>F A2 A>=c|
d/c/B/A/ d>F D2D||g|f2 d<f f<d a>f|g<e =c>e g2 g>a|f2 f>a f>g a<f|
a<fd<a f<d a>d|f2 d<a f>g a<f|g>e =c<g e<c g>e|a>fg>e f>de>c|
d/c/B/A/ d>F D2D||

